X: 100265
T: JOHN O' GROATS JIG
C: By John Bain, Wick
R: jig
B: K\"ohler's Violin Repository, v.3, 1885 p.200 #2
F: http://www.archive.org/details/klersviolinrepos03rugg
Z: 2012 John Chambers <jc:trillian.mit.edu>
M: 6/8
L: 1/8
K: Dm
(uA/G/) |\
FGA DFA | dfd ecA | Agf edc | =Bed cBA |\
FGA DFA | dfd ecA | Bgf ed^c | dDD D2 :|
|: z |\
vd3- d(fa) | afd gbg | ecA dfa | afd =Bed |\
c=BA dfa |afd gbg | Bgf ed^c | dDD D2 :|

%%sep 2 1 500

